Numix-GalliumOS/64/actions/gtk-print-paused.svg

<?xml version="1.0" encoding="UTF-8" standalone="no"?>
<svg
   xmlns:dc="http://purl.org/dc/elements/1.1/"
   xmlns:cc="http://creativecommons.org/ns#"
   xmlns:rdf="http://www.w3.org/1999/02/22-rdf-syntax-ns#"
   xmlns:svg="http://www.w3.org/2000/svg"
   xmlns="http://www.w3.org/2000/svg"
   xmlns:sodipodi="http://sodipodi.sourceforge.net/DTD/sodipodi-0.dtd"
   xmlns:inkscape="http://www.inkscape.org/namespaces/inkscape"
   width="64"
   height="64"
   viewBox="0 0 64 64"
   id="svg2"
   version="1.1"
   inkscape:version="0.91 r"
   sodipodi:docname="gtk-print-pause.svg">
  <metadata
     id="metadata16">
    <rdf:RDF>
      <cc:Work
         rdf:about="">
        <dc:format>image/svg+xml</dc:format>
        <dc:type
           rdf:resource="http://purl.org/dc/dcmitype/StillImage" />
        <dc:title></dc:title>
      </cc:Work>
    </rdf:RDF>
  </metadata>
  <defs
     id="defs14" />
  <sodipodi:namedview
     pagecolor="#ffffff"
     bordercolor="#666666"
     borderopacity="1"
     objecttolerance="10"
     gridtolerance="10"
     guidetolerance="10"
     inkscape:pageopacity="0"
     inkscape:pageshadow="2"
     inkscape:window-width="1366"
     inkscape:window-height="747"
     id="namedview12"
     showgrid="true"
     inkscape:zoom="1.3037282"
     inkscape:cx="-26.692101"
     inkscape:cy="-44.198649"
     inkscape:window-x="0"
     inkscape:window-y="21"
     inkscape:window-maximized="1"
     inkscape:current-layer="svg2">
    <inkscape:grid
       type="xygrid"
       id="grid4169" />
  </sodipodi:namedview>
  <g
     style="fill-rule:evenodd"
     id="g4"
     transform="scale(2,2)">
    <path
       style="fill:#aaaaaa;fill-opacity:0.94100001"
       d="m 9.332031,0.0078125 13.335938,0 C 26,0.0078125 26,-0.324219 26,3.339844 l 0,13.328125 C 26,20 26,20 22.667969,20 L 9.332031,20 C 6,20 6,20 6,16.667969 L 6,3.339844 C 6,0.0078125 6,0.0078125 9.332031,0.0078125 Z"
       id="path6"
       inkscape:connector-curvature="0" />
    <path
       style="fill:#cccccc"
       d="M 3.199219,8 28.800781,8 C 32,8 32,8 32,11.199219 l 0,9.601562 C 32,24 32,24 28.800781,24 L 3.199219,24 C 0,24 0,24 0,20.800781 L 0,11.199219 C 0,8 0,8 3.199219,8 Z"
       id="path8"
       inkscape:connector-curvature="0" />
  </g>
  <path
     style="fill:#dc322f"
     d="m 12,32 40,0 0,32 -40,0 z"
     id="path10"
     inkscape:connector-curvature="0" />
  <path
     inkscape:connector-curvature="0"
     style="fill:#5d5d5d;fill-opacity:1;fill-rule:evenodd"
     d="M 64,14 C 64,21.730078 57.73008,27.999998 50.000002,27.999998 42.26992,27.999998 36,21.730078 36,14 36,6.26992 42.26992,0 50.000002,0 57.73008,0 64,6.26992 64,14 Z"
     id="path4267-6" />
  <path
     sodipodi:nodetypes="ccccc"
     style="fill:#ffffff;fill-opacity:0.90196078"
     inkscape:connector-curvature="0"
     d="m 42,6.999998 6,0 0,14 -6,0 z"
     id="path4316" />
  <path
     sodipodi:nodetypes="ccccc"
     style="fill:#ffffff;fill-opacity:0.90196078"
     inkscape:connector-curvature="0"
     d="m 52,6.999998 6,0 0,14 -6,0 z"
     id="path4318" />
</svg>

<svg xmlns="http://www.w3.org/2000/svg" viewBox="0 0 64 64">
 <g transform="scale(2,2)" style="fill-rule:evenodd">
  <path d="m 9.332 0.008 13.336 0 c 3.332 0 3.332 -0.332 3.332 3.332 l 0 13.328 c 0 3.332 0 3.332 -3.332 3.332 l -13.336 0 c -3.332 0 -3.332 0 -3.332 -3.332 l 0 -13.328 c 0 -3.332 0 -3.332 3.332 -3.332" style="fill:#aaa;fill-opacity:0.941"/>
  <path d="M 3.199219,8 28.800781,8 C 32,8 32,8 32,11.199219 l 0,9.601562 C 32,24 32,24 28.800781,24 L 3.199219,24 C 0,24 0,24 0,20.800781 L 0,11.199219 C 0,8 0,8 3.199219,8 Z" style="fill:#ccc"/>
 </g>
 <path d="m 12 32 40 0 0 32 -40 0 z" style="fill:#dc322f"/>
 <path d="m 64 14 c 0 7.73 -6.27 14 -14 14 -7.73 0 -14 -6.27 -14 -14 0 -7.73 6.27 -14 14 -14 7.73 0 14 6.27 14 14" style="fill:#5d5d5d;fill-opacity:1;fill-rule:evenodd"/>
 <path d="m 42 7 6 0 0 14 -6 0 z" style="fill:#fff;fill-opacity:0.902"/>
 <path d="m 52 7 6 0 0 14 -6 0 z" style="fill:#fff;fill-opacity:0.902"/>
</svg>
